X:114
T:London March. JGi.114
M:C
L:1/8
Q:1/4=130
S:Joshua Gibbons MS,1823,Tealby,Lincs.
R:march
O:Tealby,Lincolnshire
Z:VMP/R.Greig, 2009
K:C
E2E>EE2D2|CE GcA2G2|AcGc FAEA|DCDE DFED|
E2E>EE2D2|CEGcA2G2|AcGc EGcd|e2d2c4:|
|:g>fed ggfe|defee2d2|c>dc>d e>fe>f|ggfee2d2|
g>fe>f ggfe|defee2d2|c>dc>d e>fe>f|
ggfee2d2|e2e>fe2d2|ceGcA2G2|AcGc FAEG|
DCDE DFED|CEGcA2G2|AcGc EGcd|e2d2c4:|

